X:197
T:Come, Ye Disconsolate
%%stretchlast false
M:4/4
L:1/4
K:Ab clef=C1
"^I"[A,,C,A,E]2 [A,,E,A,C] "^iii+"[A,,C,A,] | "^IV²"[A,,D,A,F]3/2 "^I"[A,,C,A,E]/ [A,,C,A,E]2 | "^IV²"[A,,F,A,D]3/2 "^I"[A,,C,A,E]/ "^IV²"[A,,D,A,F] "^♯iii"[A,,B,,DG] | "^I"[A,,E,CA]2 [A,,C,A,E] "^♯vii"[A,,A,] | "^I"[A,,E,A,C] [A,,E,A,C] "^I7³"[_G,,E,A,C] "^vi7"[F,,E,A,C] | "^IV¹"[F,,D,A,D]/ [F,,D,A,D]/ "^♯iii"[D,,D,A,D]/ [D,,D,A,D]/ "^IV"[D,,D,A,F] "^viiø7¹"[B,,D,G,F] | "^V²"[B,,G,E] "^v"[B,,A,E] "^ii7"[B,,F,A,D] "^♯iii°"[E,,F,G,D] | "^V"[E,,E,G,E] "^I"[A,,E,CE]2 "^♯vii"[A,,B,] | "^v¹"[A,,E,B,A] "^I"[A,,E,CA] "^♯iii"[A,,D,CG]/ [A,,D,A,G]/ "^IV²"[A,,D,A,F] | "^v¹"[A,,E,A,E] "^I"[A,,E,CE]/ "^IVmaj7²"[A,,F,CD]/ "^I"[A,,E,C] "^♯iii"[D,,E,CD] | "^v"[F,,E,A,A] "^v¹"[A,,E,A,A] "^♯vii"[A,,F,A,B]/ [A,,F,A,A]/ "^♯iii"[A,,D,A,G]/ "^IV²"[A,,D,A,F]/ | "^iii"[C,CE] "^I"[A,,C,CE] [A,,E,A,C] "^I¹"[C,E,A,] | [C,E,A,E] "^♯iii"[D,E,Dc] [D,E,Dc] "^ii7¹"[D,F,B,A] | "^♯iii"[D,,A,A] "^v"[E,,A,F] "^V"[E,,F,G,F] "^♯iii°"[E,,E,G,D]/ "^♯iii¹"[E,,E,A,D]/ | "^I²"[E,,E,A,C]/ "^I"[A,,E,A,C]/ "^♯iii"[A,,D,A,C] [A,,D,A,B,]/ [A,,C,A,B,]/ "^iii+²"[A,,C,A,B,]/ "^iii+"[A,,C,A,]/ | [A,,C,A,]4 |]
